X: 2312
T: Miss Mary Macdonald's Reel
%R: reel
B: Niel Gow & Sons "A Second Collection of Strathspey Reels, etc." v.2 p.31 #2
Z: 2022 John Chambers <jc:trillian.mit.edu>
M: C
L: 1/8
K: G
% - - - - - - - - - -
V: 1 staves=2
B | G<GBG  AFFA | G<GBG AGBG | D>GBG AFFA | .G(cBA) G3 ::\
B | G<Gg_B AFFA | G<Ggd gagd | f>gfc AFFA | .G(cTBA) G3 :|
% - - - - - - - - - -
V: 2 clef=bass middle=d
z | g2g2 f2f2 | g2g2 g2g2 | g2g2 f2f2 | g2d2 G2G ::\
z | g2g2 f2f2 | g2g2 g2g2 | a2c'2 f2f2 | g2d2 G2G :|


